svgs/chargemap.svg

<svg width="192" height="192" viewBox="0 0 192 192" fill="none" xmlns="http://www.w3.org/2000/svg">
<path d="M22 89.6133H83.9535C100.474 89.6133 110.8 99.0326 110.8 114.177V146.53C110.8 151.349 127.573 151.349 127.573 146.53V97.6558C112.178 90.1646 105.293 83.2 105.293 66.6791V47.4047H122.5M122.5 47.4047H152M122.5 47.4047V24M152 47.4047H169.312L170 66.6791C170 83.8884 164.218 90.7721 146.32 97.6558V146.53C144.986 158.596 135.149 167.775 119.187 168.053C100.873 168.373 92.4682 158.522 92.214 146.53V115.267C92.214 108.383 90.0571 107.293 83.1733 107.293H22M152 47.4047V24" stroke="black" stroke-width="12" stroke-linecap="round" stroke-linejoin="round"/>
</svg>

<svg width="192" height="192" viewBox="0 0 192 192" fill="none" xmlns="http://www.w3.org/2000/svg"><path d="M22 89.613h61.954c16.52 0 26.846 9.42 26.846 24.564v32.353c0 4.819 16.773 4.819 16.773 0V97.656c-15.395-7.491-22.28-14.456-22.28-30.977V47.405H122.5m0 0H152m-29.5 0V24M152 47.405h17.312L170 66.679c0 17.21-5.782 24.093-23.68 30.977v48.874c-1.334 12.066-11.171 21.245-27.133 21.523-18.314.32-26.719-9.531-26.973-21.523v-31.263c0-6.884-2.157-7.974-9.04-7.974H22m130-59.888V24" stroke="#000" stroke-width="12" stroke-linecap="round" stroke-linejoin="round"/></svg>
